X: 67
T:Waltz,4. TLY.066
M:3/8
L:1/16
S:Wm.Tildesley,Swinton,Lancs.1860s.
R:Waltz
O:England.
A:Lancashire.
H:1860.
Z:vmp.Taz Tarry.
K:D
A2F2d2|d4 c2|B2G2e2|e4 d2| c2A2a2|a4 g2|!
fgag fe| d4 AB| A2F2d2|d4 c2|B2G2e2|e4 d2|!
d2c2B2|A2B2c2| dcdf ec|d4||f2| g2e2c2|A2G2E2|!
F2A2d2|f2d2a2| ^gabagf| edcB AG| F2A2d2| f2d2a2|!
 F2A2d2|d4c2|B2G2e2|e4d2|cdedcB|AcBdce|dcdfec|d4:|]
